X:55
T:Come Home With the Girls in the Morning
K:D dor
M:4/4
L:1/4
Z:abc-transcription Josh Larios <hades@elsewhere.org>, 2014.04.15
B:Sarah Comer, Dusty Strings dance band class.
|: "Dm"Add>e | dcAG | AddA | "A"cA2A/A/ |
"Dm"Add>e | dcAA/B/ | "C"cB/"A"AG/F |1 "Dm"D2D2 :|2 "Dm"D2D ||
|: D/E/ | "Dm"FF"C"EE | "Dm"D/E/D/C/A,D/E/ | "Dm"FF"C"ED | "D"^F3D/E/ |
"Dm"=FF"C"EE | "Dm"D/E/D/C/A,A/B/ | "C"cB/"A"AG/F | "Dm"D2D :|

